packages/icons/svgs/duotone/Source=map.svg

<svg width="24" height="24" viewBox="0 0 24 24" fill="none" xmlns="http://www.w3.org/2000/svg">
<g opacity="0.5">
<path fill-rule="evenodd" clip-rule="evenodd" d="M15.5 12.5C16.0523 12.5 16.5 12.9477 16.5 13.5V21.5C16.5 22.0523 16.0523 22.5 15.5 22.5C14.9477 22.5 14.5 22.0523 14.5 21.5V13.5C14.5 12.9477 14.9477 12.5 15.5 12.5Z" fill="black" style="fill:black;fill-opacity:1;"/>
<path fill-rule="evenodd" clip-rule="evenodd" d="M8.5 12.5C9.05229 12.5 9.5 12.9477 9.5 13.5V18C9.5 18.5523 9.05229 19 8.5 19C7.94772 19 7.5 18.5523 7.5 18V13.5C7.5 12.9477 7.94772 12.5 8.5 12.5Z" fill="black" style="fill:black;fill-opacity:1;"/>
<path fill-rule="evenodd" clip-rule="evenodd" d="M22.5661 2.67569C22.8377 2.86222 23 3.17054 23 3.50001V19C23 19.4138 22.7452 19.7848 22.359 19.9334L15.859 22.4334C15.5967 22.5342 15.3041 22.5201 15.0528 22.3944L8.4473 19.0917L2.35898 21.4334C2.05147 21.5516 1.70545 21.5108 1.43386 21.3243C1.16228 21.1378 1 20.8295 1 20.5V5.00001C1 4.58623 1.25483 4.2152 1.64102 4.06666L3.68326 3.28118C4.19873 3.08292 4.77733 3.34007 4.97559 3.85555C5.17384 4.37102 4.91669 4.94961 4.40122 5.14787L3 5.6868V19.044L8.14102 17.0667C8.40328 16.9658 8.69589 16.9799 8.94721 17.1056L15.5527 20.4083L21 18.3132V4.95604L20.3238 5.21612C19.8083 5.41438 19.2297 5.15723 19.0315 4.64175C18.8332 4.12628 19.0903 3.54769 19.6058 3.34943L21.641 2.56666C21.9485 2.44839 22.2946 2.48917 22.5661 2.67569Z" fill="black" style="fill:black;fill-opacity:1;"/>
</g>
<path fill-rule="evenodd" clip-rule="evenodd" d="M7 5C7 2.23872 9.23872 0 12 0C14.7613 0 17 2.23872 17 5C17 7.73724 14.9421 9.88439 12.5796 11.5649C12.2326 11.8117 11.7674 11.8117 11.4204 11.5649C9.05794 9.88439 7 7.73724 7 5ZM12 2C10.3433 2 9 3.34328 9 5C9 6.53345 10.0705 8.0187 12 9.50631C13.9295 8.0187 15 6.53345 15 5C15 3.34328 13.6567 2 12 2Z" fill="black" style="fill:black;fill-opacity:1;"/>
<path d="M12 6.25C12.6904 6.25 13.25 5.69036 13.25 5C13.25 4.30964 12.6904 3.75 12 3.75C11.3096 3.75 10.75 4.30964 10.75 5C10.75 5.69036 11.3096 6.25 12 6.25Z" fill="black" style="fill:black;fill-opacity:1;"/>
</svg>

<svg xmlns="http://www.w3.org/2000/svg" width="24" height="24" viewBox="0 0 24 24"><g fill-rule="evenodd" clip-rule="evenodd" opacity=".55"><path d="M15.5 12.5a1 1 0 0 1 1 1v8a1 1 0 1 1-2 0v-8a1 1 0 0 1 1-1m-7 0a1 1 0 0 1 1 1V18a1 1 0 1 1-2 0v-4.5a1 1 0 0 1 1-1"/><path d="M22.566 2.676A1 1 0 0 1 23 3.5V19a1 1 0 0 1-.641.933l-6.5 2.5a1 1 0 0 1-.806-.039l-6.606-3.302-6.088 2.341A1 1 0 0 1 1 20.5V5a1 1 0 0 1 .641-.933l2.042-.786a1 1 0 1 1 .718 1.867L3 5.687v13.357l5.141-1.977a1 1 0 0 1 .806.039l6.606 3.302L21 18.313V4.956l-.676.26a1 1 0 1 1-.718-1.867l2.035-.782a1 1 0 0 1 .925.109"/></g><path fill-rule="evenodd" d="M7 5a5 5 0 0 1 10 0c0 2.737-2.058 4.884-4.42 6.565a1 1 0 0 1-1.16 0C9.058 9.885 7 7.737 7 5m5-3a3 3 0 0 0-3 3c0 1.533 1.07 3.019 3 4.506C13.93 8.02 15 6.533 15 5a3 3 0 0 0-3-3" clip-rule="evenodd"/><path d="M12 6.25a1.25 1.25 0 1 0 0-2.5 1.25 1.25 0 0 0 0 2.5"/></svg>
